!!!COM:	Josquin des Prez
!!!CDT:	~1450-1521/08/27
!!!OTL@@LAT: Tu solus qui facis mirabilia
!!!OTL2@@LAT: D'ung aultre amer
!!!ONB: Contrafactum: O mater dei
!!!AGN:	Motet
!!!SCT:	NJE 22.5
!!!SCA:	New Josquin Edition 22.5
!!!voices:	4
**kern	**kern	**kern	**kern
*staff4	*staff3	*staff2	*staff1
*Ivox	*Ivox	*Ivox	*Ivox
*I"Bassus	*I"Tenor	*I"Altus	*I"Superius
*I'B	*I'T	*I'A	*I'S
*clefF4	*clefGv2	*clefGv2	*clefG2
*>[A,B]	*>[A,B]	*>[A,B]	*>[A,B]
*>Part1[A]	*>Part1[A]	*>Part1[A]	*>Part1[A]
*>Part2[B]	*>Part2[B]	*>Part2[B]	*>Part2[B]
*>A	*>A	*>A	*>A
*k[b-]	*k[b-]	*k[b-]	*k[b-]
*M2/1	*M2/1	*M2/1	*M2/1
*met(C|)	*met(C|)	*met(C|)	*met(C|)
=1-	=1-	=1-	=1-
0GG	0G	0d	0g
=2	=2	=2	=2
0G	0B-	0d	0g
=3	=3	=3	=3
0F;	0c;	0f;	0a;
=4	=4	=4	=4
0C	0c	0e	0g
=5	=5	=5	=5
1C	1c	1e	1g
1C	1c	1e	1g
=6	=6	=6	=6
1.F	1A	1f	1.a
.	[1F	1c	.
2E\	.	.	2g/
=7	=7	=7	=7
1D	2F/]	2d\	1f
.	2F/	2B-\	.
1C	2.G/	1c	1e
.	4A/	.	.
=8	=8	=8	=8
0BB-;l	0B-;l	0F;l	0d;l
=9	=9	=9	=9
0GG	0d	0G	0b-
=10	=10	=10	=10
0G	0B-	0d	0b-
=11	=11	=11	=11
0F	0c	0f	0a
=12	=12	=12	=12
0C	0c	0e-	0g
=13	=13	=13	=13
0E-	0G	0e-i	0g
=14	=14	=14	=14
0BB-;	0B-;	0d;	0f;
=15	=15	=15	=15
0F	0c	0f	0a
=16	=16	=16	=16
1F	1c	1f	1a
[1G	[1B-	[1d	[1b-
=17	=17	=17	=17
1G]	1B-]	1d]	1b-]
1C	1c	1e	1g
=18	=18	=18	=18
0C;	0c;	0e;	0g;
=19	=19	=19	=19
0D	0A	0d	0f
=20	=20	=20	=20
1E-	1G	1B-	1g
1E-	1G	1B-	1g
=21	=21	=21	=21
0BB-	0d	0B-	0f
=22	=22	=22	=22
0C	0c	0G	0e
=23	=23	=23	=23
0GG;	0B-;	0G;	0d;
=24	=24	=24	=24
0D	0d	0A	0f
=25	=25	=25	=25
1E	1G	1c	1g
1D	1A	1d	1f
=26	=26	=26	=26
[0G	[0B-	1.d	[0g
.	.	2c\	.
=27	=27	=27	=27
1G]	1B-]	1d	1g]
1F	1c	2.f\	1a
.	.	4e\	.
=28	=28	=28	=28
0F;	0c;	0f;	0a;
=29	=29	=29	=29
0BB-	0d	0f	0b-
=30	=30	=30	=30
1F	1c	1f	1a
1G	1B-	1e	1g
=31	=31	=31	=31
0F	0c	0f	1.a
.	.	.	2f/
=32	=32	=32	=32
0BB-;	0B-;	0d;	0f;
=33	=33	=33	=33
0BB-	0d	0f	0b-
=34	=34	=34	=34
1F	1c	1f	1a
1G	1B-	1e	1g
=35	=35	=35	=35
[0D	[0A	[0d	[0f#i
=36	=36	=36	=36
1D]	1A]	1d]	1f#]
1GG	1G	1B-	1g
=37	=37	=37	=37
0GG;l	0G;l	0d;l	0g;l
=38	=38	=38	=38
1G	1B-	0r	0r
2D\	2B-\	.	.
2E\	2B-\	.	.
=39	=39	=39	=39
2.F\	1.A	0r	0r
4E\	.	.	.
2D\	.	.	.
2C/	2A/	.	.
=40	=40	=40	=40
2.BB-/	2.B-\	0r	0r
4C/	4A/	.	.
2BB-/	2G/	.	.
2AA/	2F#i/	.	.
=41	=41	=41	=41
0GG	0G	0r	0r
=42	=42	=42	=42
0r	0r	1g	1b-
.	.	2d\	2b-\
.	.	2e\	2b-\
=43	=43	=43	=43
0r	0r	2.f\	1.a
.	.	4e\	.
.	.	2d\	.
.	.	2c\	2a/
=44	=44	=44	=44
0r	0r	2.B-\	2.b-\
.	.	4c\	4a/
.	.	2B-\	2g/
.	.	2A/	2f#i/
=45	=45	=45	=45
1r	1r	1G	1g
2r	2r	2r	2r
2G\	2d\	2g\	2b-\
=46	=46	=46	=46
2G\	2d\	2g\	2b-\
2G\	2d\	2g\	2b-\
2G\	2d\	2g\	2b-\
2G\	2d\	2g\	2b-\
=47	=47	=47	=47
1D	1d	4f\	1a
.	.	4e\	.
.	.	4d\	.
.	.	4c\	.
1E	1G	2B-\	1g
.	.	2c\	.
=48	=48	=48	=48
1D	1A	1d	1f
1r	1r	1r	1r
=49	=49	=49	=49
0G	0G	0d	0g
=50	=50	=50	=50
0G	0B-	0g	0d
=51	=51	=51	=51
0C	0c	0g	0e
=52	=52	=52	=52
0D;	0A;	0f;	0d;
=53	=53	=53	=53
*M3/1	*M3/1	*M3/1	*M3/1
*met(O/3)	*met(O/3)	*met(O/3)	*met(O/3)
1D	1B-	0.r	0.r
1D	1B-	.	.
1D	1B-	.	.
=54	=54	=54	=54
1.E-	1.c	0.r	0.r
2D\	2B-\	.	.
1C	1A	.	.
=55	=55	=55	=55
1BB-	1G	0.r	0.r
1GG	1G	.	.
1AA	1F#i	.	.
=56	=56	=56	=56
0.GG	0G	0.r	0.r
.	1r	.	.
=57	=57	=57	=57
0.r	1d	1f	1b-
.	1d	1f	1b-
.	1d	1f	1b-
=58	=58	=58	=58
0.r	1.e-	1.g	1.cc
.	2d\	2f\	2b-\
.	1c	1e	1a
=59	=59	=59	=59
0.r	1B-	1d	1g
.	1G	1d	1g
.	1A	1c	1f#i
=60	=60	=60	=60
1r	0G	0d	0g
1r	.	.	.
1G	1d	1B-	1b-
=61	=61	=61	=61
1F	1d	1f	1a
1G	1B-	1d	1b-
1E	1c	1e	1g
=62	=62	=62	=62
0D	1d	1f	0f
.	1f	1d	.
1C	1e	1e	1g
=63	=63	=63	=63
1F	1d	1f	1a
1G	1B-	1d	1b-
1E	1c	1e	1g
=64	=64	=64	=64
0D;	0d;	0A; 0f;	0a;
1r	1r	1r	1r
=65	=65	=65	=65
0.G;	0.B-;	0.d;	0.g;
=66	=66	=66	=66
0.C;	0.c;	0.e-i;	0.g;
=67	=67	=67	=67
0.D;	0.A;	0.d;	0.f#i;
=68	=68	=68	=68
0.GGl	0.Gl	0.B-l	0.gl
!!LO:LB:i:g=z
=69||	=69||	=69||	=69||
*>B	*>B	*>B	*>B
!!section: Secunda pars: D'ung aultre amer
!!!OMD: Secunda pars: D'ung aultre amer
*M2/1	*M2/1	*M2/1	*M2/1
*met(C|)	*met(C|)	*met(C|)	*met(C|)
0G	0r	0r	0g
=70	=70	=70	=70
1F	0r	0r	1a
1G	.	.	1g
=71	=71	=71	=71
1.B-	1r	0r	1.dd
.	1B-	.	.
4A\	.	.	4cc\
4G\	.	.	4b-\
=72	=72	=72	=72
2F\	1c	2r	1a
4E\	.	2f\	.
4D\	.	.	.
1C	1c	2g\	1r
.	.	2a\	.
=73	=73	=73	=73
1BB-	1.d	1.b-	0r
1r	.	.	.
.	2c\	2a\	.
=74	=74	=74	=74
0r	1B-	1g	0r
.	1A	1f#i	.
=75	=75	=75	=75
0r	0G	0g	0r
=76	=76	=76	=76
0G	0r	0r	0g
=77	=77	=77	=77
1F	0r	0r	1a
1G	.	.	1g
=78	=78	=78	=78
1.B-	1r	0r	1.dd
.	1B-	.	.
4A\	.	.	4cc\
4G\	.	.	4b-\
=79	=79	=79	=79
2F\	1c	2r	1a
4E\	.	2f\	.
4D\	.	.	.
1C	1c	2g\	1r
.	.	2a\	.
=80	=80	=80	=80
1BB-	1.d	1.b-	0r
1GG	.	.	.
.	2c\	2a\	.
=81	=81	=81	=81
0r	1B-	1g	0r
.	1A	1f#i	.
=82	=82	=82	=82
1r	0G	0g	1r
[1B-	.	.	[1dd
=83	=83	=83	=83
1B-]	1B-	1G	1dd]
1A	1c	1A	1cc
=84	=84	=84	=84
0G	0d	0B-	1.b-
.	.	.	4a/
.	.	.	4g/
=85	=85	=85	=85
0D;	0d;	0A;	0f;
=86	=86	=86	=86
*M3/1	*M3/1	*M3/1	*M3/1
*met(O/3)	*met(O/3)	*met(O/3)	*met(O/3)
0.r	1B-	1d	1g
.	1B-	1d	1g
.	1B-	1d	1g
=87	=87	=87	=87
0.r	0B-	0d	0g
.	1B-	1d	1g
=88	=88	=88	=88
0.r	0B-	0d	0g
.	1c	1e	1a
=89	=89	=89	=89
0.r	0A	0c	0f
.	1r	1r	1r
=90	=90	=90	=90
1G	1d	1B-	1b-
1G	1d	1B-	1b-
1G	1d	1B-	1b-
=91	=91	=91	=91
0G	0B-	1.d	0b-
.	.	2e\	.
1F	1c	1f	1a
=92	=92	=92	=92
1D	1d	1f	1a
1E	1G	1c	1g
1D	1A	1d	1f#i
=93	=93	=93	=93
0GG	0G	0B-	0g
1r	1r	1r	1r
=94	=94	=94	=94
0.D;	0.A;	0.d;	0.f;
=95	=95	=95	=95
0.E-;	0.G;	0.B-;	0.g;
=96	=96	=96	=96
0.F;	0.c;	0.f;	0.a;
=97	=97	=97	=97
0.C;	0.c;	0.e;	0.g;
=98	=98	=98	=98
1BB-	1d	1f	1b-
1BB-	1d	1f	1b-
1BB-	1B-	1f	1b-
=99	=99	=99	=99
0F	0c	0f	0a
1BB-	1d	1f	1b-
=100	=100	=100	=100
1F	1c	0f	1a
1D	1d	.	1f
1E	1B-	1e	1g
=101	=101	=101	=101
1F	0A	1c	0a
1D	.	1d	.
1r	1d	1r	1r
=102	=102	=102	=102
1F	0c	1A	1a
1F	.	1A	1a
1F	1A	1A	1cc
=103	=103	=103	=103
0BB-	0B-	0f	0b-
1F	1c	1f	1a
=104	=104	=104	=104
1G	1B-	1d	1g
1C	1c	1e	1e
1D	1A	1d	1f
=105	=105	=105	=105
1E-i	0G	1B-	0g
1C	.	1c	.
1r	1r	1r	1r
=106	=106	=106	=106
0.D;	0.F;	0.f;	0.a;
=107	=107	=107	=107
0.G;	0.B-;	0.d;	0.g;
=108	=108	=108	=108
0.D;	0.A;	0.d;	0.f#i;
=109	=109	=109	=109
[0.GGl	[0.Gl	0.B-;	[0.gl
=110	=110	=110	=110
0.GG]	0.G]	0.dl	0.g]
==	==	==	==
*-	*-	*-	*-
!!!RDF**kern: l=long note in original notation
!!!RDF**kern: i=editorial accidental
!!!ENC:	Joel Chapman 2011/5/20; Victoria Chang 2011/08/08
!!!END:	2011/05/20/
!!!EED:	Jesse Rodin
!!!EEV:	2011/08/10/
!!attribution-level@Jos: 1 (secure)
!!!ONB:	Translated from MusicXML and edited on 2011/08/10/ by Craig Sapp
!!muse2ps: u^(2) @{OTL2}^C^@{COM}\n@{SCT}^I150v90,90,90,150c95Q16
